X: 17
T: Tripping Up The Stairs
Z: Em G
S: https://thesession.org/tunes/111#setting54363
R: jig
M: 6/8
L: 1/8
K: Dmaj
|:FAA GBB|Ade fed|c2c ABc|dfe dAG|
FAA GBB|Ade fed|c2c ABc|1dfe d2A:|2dfe d2c||
|:dBB fBB|fgf fed|cAA eAA|efe edc|
dBB fBB|fgf fed|~c3 ABc|1dfe d2c:|2dfe d2A||

%-------------------- TUNE SEPARATOR --------------------%

